Sources/FrostedUI/Resources/Icons.xcassets/listCheck32.imageset/list-check-32.svg

<svg width="32" height="32" viewBox="0 0 32 32" fill="none" xmlns="http://www.w3.org/2000/svg" data-fui-icon="true">
  <path
    d="M24.333 4.25C26.22 4.25 27.75 5.78003 27.75 7.66699V24.333C27.75 26.22 26.22 27.75 24.333 27.75H7.66699C5.78003 27.75 4.25 26.22 4.25 24.333V7.66699C4.25 5.78002 5.78002 4.25 7.66699 4.25H24.333ZM7.66699 5.75C6.60845 5.75 5.75 6.60845 5.75 7.66699V24.333C5.75 25.3916 6.60844 26.25 7.66699 26.25H24.333C25.3916 26.25 26.25 25.3916 26.25 24.333V7.66699C26.25 6.60844 25.3916 5.75 24.333 5.75H7.66699ZM13.4531 17.8877C13.7017 17.5566 14.1716 17.4898 14.5029 17.7383C14.8341 17.9869 14.9008 18.4568 14.6523 18.7881L12.1572 22.1152L12.0586 22.2236C11.8087 22.4483 11.4313 22.4821 11.1416 22.2891L9.6416 21.2891C9.29696 21.0593 9.20383 20.5937 9.43359 20.249C9.66342 19.9046 10.1291 19.8113 10.4736 20.041L11.3828 20.6465L13.4531 17.8877ZM21.667 19.25C22.0811 19.2502 22.417 19.5859 22.417 20C22.417 20.4141 22.0811 20.7498 21.667 20.75H18.333C17.9189 20.7498 17.583 20.4141 17.583 20C17.583 19.5859 17.9189 19.2502 18.333 19.25H21.667ZM13.4531 9.88672C13.7016 9.55535 14.1716 9.4878 14.5029 9.73633C14.8342 9.98487 14.9008 10.4548 14.6523 10.7861L12.1572 14.1133L11.5576 13.6631V13.6641L12.1572 14.1133C11.9185 14.4316 11.4728 14.5086 11.1416 14.2881L9.6416 13.2881C9.29701 13.0583 9.20394 12.5927 9.43359 12.248C9.66337 11.9034 10.129 11.8103 10.4736 12.04L11.3828 12.6455L13.4531 9.88672ZM21.7441 11.25C22.1583 11.2501 22.4941 11.5858 22.4941 12C22.4941 12.4142 22.1583 12.7499 21.7441 12.75H18.4111C17.9969 12.75 17.6611 12.4142 17.6611 12C17.6611 11.5858 17.9969 11.25 18.4111 11.25H21.7441Z"
    fill="currentColor"
  />
</svg>

<svg xmlns="http://www.w3.org/2000/svg" width="32" height="32" fill="none" data-fui-icon="true" viewBox="0 0 32 32"><path fill="currentColor" d="M24.333 4.25a3.417 3.417 0 0 1 3.417 3.417v16.666a3.417 3.417 0 0 1-3.417 3.417H7.667a3.417 3.417 0 0 1-3.417-3.417V7.667A3.417 3.417 0 0 1 7.667 4.25zM7.667 5.75A1.917 1.917 0 0 0 5.75 7.667v16.666c0 1.059.858 1.917 1.917 1.917h16.666a1.917 1.917 0 0 0 1.917-1.917V7.667a1.917 1.917 0 0 0-1.917-1.917zm5.786 12.138a.75.75 0 0 1 1.2.9l-2.496 3.327-.098.109a.75.75 0 0 1-.917.065l-1.5-1a.75.75 0 0 1 .832-1.248l.909.605zm8.214 1.362a.75.75 0 0 1 0 1.5h-3.334a.75.75 0 0 1 0-1.5zm-8.214-9.363a.75.75 0 1 1 1.2.9l-2.496 3.326-.6-.45v.001l.6.45a.75.75 0 0 1-1.015.174l-1.5-1a.75.75 0 0 1 .832-1.248l.909.606zm8.291 1.363a.75.75 0 0 1 0 1.5h-3.333a.75.75 0 0 1 0-1.5z"/></svg>
